files/1/22x22/places/folder-wine.svg

<svg width="22" xmlns="http://www.w3.org/2000/svg" height="22" viewBox="0 0 22 22" xmlns:xlink="http://www.w3.org/1999/xlink">
<g style="stroke:#a57953">
<path style="fill:#a57953" d="M 3.0747868,17.497151 C 2.762651,17.466647 2.4999999,17.157803 2.4999999,16.829893 l 0,-12.6588176 c 0,-0.3507866 0.3045229,-0.6710699 0.6394983,-0.6710699 l 15.7210038,0 c 0.334974,0 0.639498,0.3202833 0.639498,0.6710699 l 0,11.4844456 c 0,0.350786 -0.304524,0.667258 -0.639498,0.667258 l -6.139947,0 0,0.507114 c 0,0.350786 -0.304523,0.667257 -0.635691,0.667257 l -8.9453658,0 c -0.02284,0.0038 -0.041872,0.0038 -0.064711,0 z"/>
<path style="fill:#e9b080" d="M 1.211697,5.5 C 0.82207275,5.5308192 0.49606072,5.8390204 0.50003613,6.1664833 l 0,12.6631817 c 0,0.350578 0.37372172,0.670335 0.78720037,0.670335 l 19.4255635,0 c 0.413479,0 0.7872,-0.319757 0.7872,-0.670335 l 0,-11.4843152 c 0,-0.3505782 -0.373721,-0.6703359 -0.7872,-0.6703359 l -7.585749,0 0,-0.5085306 C 13.127051,5.8197582 12.753329,5.5 12.33985,5.5 l -11.0526135,0 c -0.02783,0 -0.051685,0 -0.075539,0 z"/>
</g>
<g style="fill:#a57953">
<path d="M 13.929688 8.222656 C 13.59375 8.226562 13.261719 8.449219 13.210938 8.855469 C 13.125 9.511719 13.757812 9.265625 14.265625 9.265625 C 14.773438 9.265625 14.941406 10.332031 14.816406 10.90625 C 14.6875 11.480469 13.339844 12.835938 10.292969 11.480469 C 7.78125 10.363281 6.527344 11.851562 6.464844 11.878906 C 6.703125 14.097656 8.640625 16.5 10.988281 16.5 C 13.5 16.5 15.535156 13.851562 15.535156 11.417969 C 15.535156 11.140625 15.5 10.863281 15.449219 10.597656 C 15.402344 10.464844 15.359375 10.332031 15.324219 10.210938 C 15.261719 9.992188 15.191406 9.808594 15.132812 9.636719 C 15.128906 9.628906 15.136719 9.621094 15.132812 9.617188 C 14.894531 9.097656 14.554688 8.628906 14.140625 8.242188 C 14.136719 8.238281 14.128906 8.246094 14.128906 8.242188 C 14.0625 8.226562 13.996094 8.222656 13.929688 8.222656 Z "/>
<path d="M 13.230469 9.78125 C 13.230469 9.914062 13.117188 10.023438 12.976562 10.023438 C 12.835938 10.023438 12.722656 9.914062 12.722656 9.78125 C 12.722656 9.644531 12.835938 9.535156 12.976562 9.535156 C 13.117188 9.535156 13.230469 9.644531 13.230469 9.78125 Z "/>
<path d="M 12.722656 8.886719 C 12.722656 8.984375 12.640625 9.0625 12.542969 9.0625 C 12.445312 9.0625 12.363281 8.984375 12.363281 8.886719 C 12.363281 8.792969 12.445312 8.714844 12.542969 8.714844 C 12.640625 8.714844 12.722656 8.792969 12.722656 8.886719 Z "/>
</g>
</svg>

<?xml version="1.0" encoding="UTF-8" standalone="no"?>
<svg
   xmlns:dc="http://purl.org/dc/elements/1.1/"
   xmlns:cc="http://creativecommons.org/ns#"
   xmlns:rdf="http://www.w3.org/1999/02/22-rdf-syntax-ns#"
   xmlns:svg="http://www.w3.org/2000/svg"
   xmlns="http://www.w3.org/2000/svg"
   xmlns:sodipodi="http://sodipodi.sourceforge.net/DTD/sodipodi-0.dtd"
   xmlns:inkscape="http://www.inkscape.org/namespaces/inkscape"
   width="22"
   height="22"
   viewBox="0 0 22 22"
   id="svg3119"
   version="1.1"
   inkscape:version="0.48.5 r10040"
   sodipodi:docname="folder-wine.svg">
  <metadata
     id="metadata3139">
    <rdf:RDF>
      <cc:Work
         rdf:about="">
        <dc:format>image/svg+xml</dc:format>
        <dc:type
           rdf:resource="http://purl.org/dc/dcmitype/StillImage" />
      </cc:Work>
    </rdf:RDF>
  </metadata>
  <defs
     id="defs3137" />
  <sodipodi:namedview
     pagecolor="#ffffff"
     bordercolor="#666666"
     borderopacity="1"
     objecttolerance="10"
     gridtolerance="10"
     guidetolerance="10"
     inkscape:pageopacity="0"
     inkscape:pageshadow="2"
     inkscape:window-width="1280"
     inkscape:window-height="969"
     id="namedview3135"
     showgrid="false"
     inkscape:zoom="21.454545"
     inkscape:cx="8.6157452"
     inkscape:cy="11.265762"
     inkscape:window-x="0"
     inkscape:window-y="0"
     inkscape:window-maximized="1"
     inkscape:current-layer="svg3119" />
  <path
     style="font-size:medium;font-style:normal;font-variant:normal;font-weight:normal;font-stretch:normal;text-indent:0;text-align:start;text-decoration:none;line-height:normal;letter-spacing:normal;word-spacing:normal;text-transform:none;direction:ltr;block-progression:tb;writing-mode:lr-tb;text-anchor:start;baseline-shift:baseline;color:#000000;fill:#e9b080;fill-opacity:1;fill-rule:nonzero;stroke:none;stroke-width:1.03313816;marker:none;visibility:visible;display:inline;overflow:visible;enable-background:accumulate;font-family:Sans;-inkscape-font-specification:Sans"
     d="m 3.0000115,2 c -0.5473306,0 -1,0.4096882 -1,1 l 0,1 -1,0 C 0.49808429,4 1.1533333e-5,4.3847489 1.1533333e-5,5 c -1.52499997e-5,4.5937493 0,9.40625 0,14 0,0.545771 0.493417306667,1 0.999999966667,1 l 20.0000005,0 c 0.515688,0 1,-0.437034 1,-1 l 0,-13 c 0,-0.5770209 -0.423105,-1 -1,-1 l -2,0 0,-2 c 0,-0.4874255 -0.401824,-1 -1,-1 z"
     id="path2995"
     inkscape:connector-curvature="0"
     sodipodi:nodetypes="ccccccssssscssc" />
  <path
     style="fill:#000000;fill-opacity:0.32156864"
     inkscape:connector-curvature="0"
     id="path3129"
     d="m 13.929688,8.222656 c -0.335938,0.00391 -0.667969,0.226563 -0.71875,0.632813 -0.08594,0.65625 0.546874,0.410156 1.054687,0.410156 0.507813,0 0.675781,1.066406 0.550781,1.640625 -0.128906,0.574219 -1.476562,1.929688 -4.523437,0.574219 C 7.78125,10.363281 6.527344,11.851562 6.464844,11.878906 6.703125,14.097656 8.640625,16.5 10.988281,16.5 c 2.511719,0 4.546875,-2.648438 4.546875,-5.082031 0,-0.277344 -0.03516,-0.554688 -0.08594,-0.820313 -0.04687,-0.132812 -0.08984,-0.265625 -0.125,-0.386718 -0.0625,-0.21875 -0.132813,-0.402344 -0.191407,-0.574219 -0.0039,-0.00781 0.0039,-0.015625 0,-0.019531 -0.238281,-0.519532 -0.578124,-0.988282 -0.992187,-1.375 -0.0039,-0.00391 -0.01172,0.00391 -0.01172,0 C 14.0625,8.226562 13.996094,8.222656 13.929688,8.222656 z" />
  <path
     style="fill:#000000;fill-opacity:0.32156864"
     inkscape:connector-curvature="0"
     id="path3131"
     d="m 13.230469,9.78125 c 0,0.132812 -0.113281,0.242188 -0.253907,0.242188 -0.140624,0 -0.253906,-0.109376 -0.253906,-0.242188 0,-0.136719 0.113282,-0.246094 0.253906,-0.246094 0.140626,0 0.253907,0.109375 0.253907,0.246094 z" />
  <path
     style="fill:#000000;fill-opacity:0.32156864"
     inkscape:connector-curvature="0"
     id="path3133"
     d="m 12.722656,8.886719 c 0,0.097656 -0.08203,0.175781 -0.179687,0.175781 -0.09766,0 -0.179688,-0.078125 -0.179688,-0.175781 0,-0.09375 0.08203,-0.171875 0.179688,-0.171875 0.09766,0 0.179687,0.078125 0.179687,0.171875 z" />
  <path
     style="font-size:medium;font-style:normal;font-variant:normal;font-weight:normal;font-stretch:normal;text-indent:0;text-align:start;text-decoration:none;line-height:normal;letter-spacing:normal;word-spacing:normal;text-transform:none;direction:ltr;block-progression:tb;writing-mode:lr-tb;text-anchor:start;baseline-shift:baseline;color:#000000;fill:#000000;fill-opacity:0.32156863;fill-rule:nonzero;stroke:none;stroke-width:1.03313816;marker:none;visibility:visible;display:inline;overflow:visible;enable-background:accumulate;font-family:Sans;-inkscape-font-specification:Sans"
     d="m 3.0000115,2 c -0.5444543,0 -1,0.3988699 -1,1 l 0,1 -1,0 C 0.49325208,4 1.1533333e-5,4.3964676 1.1533333e-5,5 c -2.595e-5,4.5937491 0,9.40625 0,14 0,0.487177 0.419198556667,1 0.999999966667,1 l 20.0000005,0 c 0.521212,0 1,-0.442558 1,-1 l 0,-13 c 0,-0.5731146 -0.393904,-1 -1,-1 l -2,0 0,-2 c 0,-0.5585119 -0.457433,-1 -1,-1 z m 10.0000005,3 0,1 8,0 0,13 -20.0000005,0 0,-14 z"
     id="path3786"
     inkscape:connector-curvature="0"
     sodipodi:nodetypes="ssccccssssscsssccccccc" />
</svg>
